;FLAVOR:Marlin
;TIME:4776
;Filament used: 3.09548m
;Layer height: 0.2
;MINX:103
;MINY:127.422
;MINZ:0.2
;MAXX:197
;MAXY:175.656
;MAXZ:29.2
;Generated with Cura_SteamEngine 4.13.1
M140 S50
M105
M190 S50
M104 S219
M105
M109 S219
M82 ;absolute extrusion mode
M201 X500.00 Y500.00 Z100.00 E5000.00 ;Setup machine max acceleration
M203 X500.00 Y500.00 Z10.00 E50.00 ;Setup machine max feedrate
M204 P500.00 R1000.00 T500.00 ;Setup Print/Retract/Travel acceleration
M205 X8.00 Y8.00 Z0.40 E5.00 ;Setup Jerk
M220 S100 ;Reset Feedrate
M221 S100 ;Reset Flowrate

G28 ;Home
G29 ;Auto bed Level

G92 E0 ;Reset Extruder
G1 Z2.0 F3000 ;Move Z Axis up
G1 X10.1 Y20 Z0.28 F5000.0 ;Move to start position
G1 X10.1 Y200.0 Z0.28 F1500.0 E15 ;Draw the first line
G1 X10.4 Y200.0 Z0.28 F5000.0 ;Move to side a little
G1 X10.4 Y20 Z0.28 F1500.0 E30 ;Draw the second line
G92 E0 ;Reset Extruder
G1 Z2.0 F3000 ;Move Z Axis up

G92 E0
G92 E0
G1 F2700 E-5
;LAYER_COUNT:147
;LAYER:0
M107
G1 F300 Z0.4
G0 F6000 X106.886 Y130.049 Z0.4
;TYPE:SKIRT
G1 F300 Z0.2
G1 F2700 E0
G1 F1200 X107.626 Y129.473 E0.03088
G1 X108.412 Y128.961 E0.06177
G1 X109.239 Y128.519 E0.09264
G1 X110.101 Y128.149 E0.12353
G1 X110.991 Y127.853 E0.15441
G1 X111.903 Y127.635 E0.18529
G1 X112.83 Y127.494 E0.21616
G1 X113.701 Y127.435 E0.24491
G1 X114.022 Y127.426 E0.25548
G1 X114.33 Y127.422 E0.26563
G1 X185.293 Y127.422 E2.60226
G1 X186.149 Y127.433 E2.63045
G1 X187.085 Y127.487 E2.66132
G1 X188.013 Y127.619 E2.69219
G1 X188.927 Y127.831 E2.72308
G1 X189.819 Y128.12 E2.75396
G1 X190.684 Y128.483 E2.78484
G1 X191.514 Y128.919 E2.81572
G1 X192.305 Y129.424 E2.84662
G1 X193.049 Y129.995 E2.8775
G1 X193.742 Y130.627 E2.90838
G1 X194.379 Y131.315 E2.93925
G1 X194.954 Y132.056 E2.97014
G1 X195.465 Y132.842 E3.00101
G1 X195.907 Y133.67 E3.03191
G1 X196.276 Y134.532 E3.06279
G1 X196.571 Y135.422 E3.09366
G1 X196.789 Y136.334 E3.12454
G1 X196.929 Y137.262 E3.15544
G1 X196.987 Y138.123 E3.18385
G1 X196.996 Y138.443 E3.1944
G1 X197 Y138.752 E3.20457
G1 X196.999 Y164.056 E4.03777
G1 X196.99 Y164.783 E4.06171
G1 X196.939 Y165.72 E4.09261
G1 X196.807 Y166.648 E4.12347
G1 X196.598 Y167.562 E4.15435
G1 X196.311 Y168.455 E4.18523
G1 X195.949 Y169.321 E4.21614
G1 X195.515 Y170.152 E4.24701
G1 X195.011 Y170.943 E4.27789
G1 X194.442 Y171.688 E4.30876
G1 X193.811 Y172.383 E4.33967
G1 X193.124 Y173.021 E4.37054
G1 X192.385 Y173.598 E4.40141
G1 X191.599 Y174.11 E4.4323
G1 X190.773 Y174.553 E4.46316
G1 X189.911 Y174.925 E4.49408
G1 X189.022 Y175.221 E4.52493
G1 X188.11 Y175.441 E4.55582
G1 X187.183 Y175.582 E4.58669
G1 X186.299 Y175.643 E4.61587
G1 X185.978 Y175.652 E4.62645
G1 X185.67 Y175.656 E4.63659
G1 X114.565 Y175.655 E6.9779
G1 X113.867 Y175.646 E7.00089
G1 X112.931 Y175.594 E7.03175
G1 X112.002 Y175.462 E7.06265
G1 X111.088 Y175.252 E7.09353
G1 X110.195 Y174.965 E7.12442
G1 X109.33 Y174.602 E7.1553
G1 X108.499 Y174.168 E7.18617
G1 X107.708 Y173.664 E7.21706
G1 X106.963 Y173.094 E7.24794
G1 X106.269 Y172.463 E7.27883
G1 X105.632 Y171.776 E7.30968
G1 X105.055 Y171.036 E7.34058
G1 X104.543 Y170.25 E7.37146
G1 X104.1 Y169.423 E7.40236
G1 X103.729 Y168.562 E7.43323
G1 X103.433 Y167.672 E7.46411
G1 X103.214 Y166.76 E7.49499
G1 X103.073 Y165.833 E7.52587
G1 X103.013 Y164.944 E7.55521
G1 X103.004 Y164.611 E7.56618
G1 X103 Y164.314 E7.57596
G1 X103.001 Y138.947 E8.41123
G1 X103.01 Y138.282 E8.43313
G1 X103.063 Y137.346 E8.464
G1 X103.195 Y136.417 E8.4949
G1 X103.406 Y135.503 E8.52578
G1 X103.694 Y134.611 E8.55665
G1 X104.057 Y133.746 E8.58754
G1 X104.492 Y132.915 E8.61842
G1 X104.996 Y132.125 E8.64928
G1 X105.566 Y131.38 E8.68016
G1 X106.198 Y130.686 E8.71107
G1 X106.886 Y130.049 E8.74194
G0 F6000 X107.274 Y130.245
G1 F1200 X108.01 Y129.692 E8.77226
G1 X108.791 Y129.204 E8.80258
G1 X109.611 Y128.786 E8.83289
G1 X110.465 Y128.441 E8.86322
G1 X111.345 Y128.171 E8.89353
G1 X112.245 Y127.979 E8.92383
G1 X113.159 Y127.865 E8.95416
G1 X113.712 Y127.835 E8.97239
G1 X114.033 Y127.826 E8.98297
G1 X114.33 Y127.822 E8.99275
G1 X185.293 Y127.822 E11.32938
G1 X186.143 Y127.833 E11.35737
G1 X187.062 Y127.886 E11.38768
G1 X187.973 Y128.019 E11.418
G1 X188.869 Y128.23 E11.44831
G1 X189.743 Y128.518 E11.47861
G1 X190.59 Y128.881 E11.50895
G1 X191.401 Y129.316 E11.53926
G1 X192.171 Y129.82 E11.56956
G1 X192.895 Y130.389 E11.59988
G1 X193.567 Y131.019 E11.63021
G1 X194.182 Y131.704 E11.66052
G1 X194.735 Y132.44 E11.69084
G1 X195.222 Y133.221 E11.72114
G1 X195.639 Y134.042 E11.75146
G1 X195.984 Y134.896 E11.78179
G1 X196.253 Y135.776 E11.81209
G1 X196.445 Y136.677 E11.84242
G1 X196.558 Y137.59 E11.87272
G1 X196.587 Y138.134 E11.89065
G1 X196.596 Y138.454 E11.9012
G1 X196.6 Y138.752 E11.91101
G1 X196.599 Y164.051 E12.74404
G1 X196.59 Y164.778 E12.76798
G1 X196.539 Y165.697 E12.79829
G1 X196.408 Y166.609 E12.82863
G1 X196.198 Y167.505 E12.85893
G1 X195.912 Y168.38 E12.88924
G1 X195.551 Y169.227 E12.91956
G1 X195.117 Y170.039 E12.94988
G1 X194.615 Y170.811 E12.9802
G1 X194.047 Y171.536 E13.01052
G1 X193.419 Y172.209 E13.04083
G1 X192.735 Y172.825 E13.07114
G1 X192 Y173.379 E13.10145
G1 X191.22 Y173.868 E13.13176
G1 X190.4 Y174.287 E13.16208
G1 X189.547 Y174.633 E13.19239
G1 X188.667 Y174.904 E13.22271
G1 X187.767 Y175.097 E13.25302
G1 X186.853 Y175.212 E13.28335
G1 X186.288 Y175.243 E13.30199
G1 X185.967 Y175.252 E13.31256
G1 X185.67 Y175.256 E13.32234
G1 X114.57 Y175.255 E15.66349
G1 X113.872 Y175.246 E15.68647
G1 X112.953 Y175.194 E15.71678
G1 X112.042 Y175.063 E15.74709
G1 X111.146 Y174.853 E15.77739
G1 X110.271 Y174.566 E15.80771
G1 X109.424 Y174.204 E15.83804
G1 X108.612 Y173.77 E15.86836
G1 X107.841 Y173.268 E15.89865
G1 X107.116 Y172.7 E15.92898
G1 X106.443 Y172.071 E15.95931
G1 X105.828 Y171.387 E15.9896
G1 X105.274 Y170.652 E16.01991
G1 X104.786 Y169.871 E16.05023
G1 X104.367 Y169.051 E16.08055
G1 X104.021 Y168.198 E16.11086
G1 X103.751 Y167.318 E16.14117
G1 X103.558 Y166.417 E16.17151
G1 X103.444 Y165.504 E16.20181
G1 X103.413 Y164.933 E16.22064
G1 X103.404 Y164.6 E16.23161
G1 X103.4 Y164.314 E16.24102
G1 X103.401 Y138.953 E17.0761
G1 X103.41 Y138.288 E17.098
G1 X103.462 Y137.368 E17.12834
G1 X103.594 Y136.457 E17.15865
G1 X103.805 Y135.561 E17.18896
G1 X104.092 Y134.686 E17.21928
G1 X104.455 Y133.84 E17.24959
G1 X104.889 Y133.028 E17.27991
G1 X105.392 Y132.257 E17.31022
G1 X105.961 Y131.533 E17.34054
G1 X106.589 Y130.861 E17.37083
G1 X107.274 Y130.245 E17.40116
G0 F6000 X107.662 Y130.446
G1 F1200 X108.394 Y129.916 E17.43092
G1 X109.169 Y129.453 E17.46065
G1 X109.982 Y129.06 E17.49038
G1 X110.827 Y128.74 E17.52013
G1 X111.696 Y128.497 E17.54984
G1 X112.584 Y128.331 E17.57959
G1 X113.723 Y128.235 E17.61723
G1 X114.044 Y128.226 E17.6278
G1 X114.33 Y128.222 E17.63722
G1 X185.293 Y128.222 E19.97386
G1 X186.137 Y128.233 E20.00165
G1 X187.039 Y128.286 E20.0314
G1 X187.932 Y128.418 E20.06113
G1 X188.81 Y128.629 E20.09086
G1 X189.666 Y128.917 E20.1206
G1 X190.493 Y129.279 E20.15032
G1 X191.285 Y129.714 E20.18008
G1 X192.036 Y130.216 E20.20982
G1 X192.739 Y130.783 E20.23956
G1 X193.389 Y131.41 E20.2693
G1 X193.981 Y132.092 E20.29903
G1 X194.511 Y132.823 E20.32877
G1 X194.973 Y133.599 E20.3585
G1 X195.366 Y134.412 E20.38824
G1 X195.684 Y135.257 E20.41797
G1 X195.927 Y136.127 E20.44771
G1 X196.092 Y137.015 E20.47745
G1 X196.187 Y138.145 E20.51479
G1 X196.196 Y138.465 E20.52533
G1 X196.2 Y138.752 E20.53478
G1 X196.199 Y164.046 E21.36765
G1 X196.19 Y164.773 E21.39159
G1 X196.139 Y165.675 E21.42134
G1 X196.008 Y166.569 E21.45109
G1 X195.799 Y167.447 E21.48081
G1 X195.513 Y168.304 E21.51056
G1 X195.152 Y169.132 E21.5403
G1 X194.72 Y169.924 E21.57
G1 X194.219 Y170.676 E21.59976
G1 X193.653 Y171.38 E21.6295
G1 X193.028 Y172.031 E21.65922
G1 X192.347 Y172.625 E21.68897
G1 X191.616 Y173.156 E21.71872
G1 X190.842 Y173.62 E21.74844
G1 X190.029 Y174.014 E21.77819
G1 X189.185 Y174.334 E21.80791
G1 X188.315 Y174.579 E21.83767
G1 X187.428 Y174.745 E21.86738
G1 X186.277 Y174.843 E21.90542
G1 X185.956 Y174.852 E21.91599
G1 X185.67 Y174.856 E21.92541
G1 X114.575 Y174.855 E24.26639
G1 X113.877 Y174.846 E24.28938
G1 X112.976 Y174.795 E24.31909
G1 X112.082 Y174.663 E24.34885
G1 X111.204 Y174.454 E24.37857
G1 X110.347 Y174.167 E24.40833
G1 X109.52 Y173.806 E24.43804
G1 X108.727 Y173.373 E24.46779
G1 X107.976 Y172.872 E24.49752
G1 X107.272 Y172.306 E24.52726
G1 X106.621 Y171.68 E24.557
G1 X106.028 Y170.999 E24.58673
G1 X105.498 Y170.268 E24.61646
G1 X105.034 Y169.493 E24.64621
G1 X104.64 Y168.68 E24.67595
G1 X104.32 Y167.836 E24.70568
G1 X104.076 Y166.966 E24.73543
G1 X103.91 Y166.078 E24.76517
G1 X103.813 Y164.923 E24.80334
G1 X103.804 Y164.59 E24.81431
G1 X103.8 Y164.314 E24.8234
G1 X103.801 Y138.958 E25.65831
G1 X103.81 Y138.293 E25.68021
G1 X103.862 Y137.391 E25.70996
G1 X103.994 Y136.498 E25.73968
G1 X104.204 Y135.62 E25.76941
G1 X104.491 Y134.763 E25.79917
G1 X104.853 Y133.936 E25.82889
G1 X105.286 Y133.144 E25.85861
G1 X105.788 Y132.393 E25.88836
G1 X106.355 Y131.689 E25.91812
G1 X106.981 Y131.039 E25.94784
G1 X107.662 Y130.446 E25.97757
G1 F2700 E20.97757
G1 F300 Z0.4
;MESH:Back.stl
G0 F6000 X184.6 Y163.256 Z0.4
;TYPE:WALL-INNER
G1 F300 Z0.2
G1 F2700 E25.97757
G1 F1200 X115.4 Y163.256 E28.25616
G1 X115.4 Y139.822 E29.02778
G1 X184.6 Y139.822 E31.30636
G1 X184.6 Y163.256 E32.07799
G0 F6000 X185 Y163.656
G1 F1200 X115 Y163.656 E34.38292
G1 X115 Y139.422 E35.18088
G1 X185 Y139.422 E37.48581
G1 X185 Y163.656 E38.28377
G0 F6000 X185.4 Y164.056
G1 F1200 X114.6 Y164.056 E40.61504
G1 X114.6 Y139.022 E41.43935
G1 X185.4 Y139.022 E43.77062
G1 X185.4 Y164.056 E44.59493
G0 F6000 X185.8 Y164.456
;TYPE:WALL-OUTER
G1 F1200 X114.2 Y164.456 E46.95254
G1 X114.2 Y138.622 E47.80319
G1 X185.8 Y138.622 E50.1608
G1 X185.8 Y164.456 E51.01145
G1 F2700 E46.01145
G1 F300 Z0.4
G0 F6000 X184.21 Y162.866 Z0.4
;TYPE:SKIN
G1 F300 Z0.2
G1 F2700 E51.01145
G1 F1200 X115.79 Y162.866 E53.26435
G1 X115.79 Y140.212 E54.01029
G1 X184.21 Y140.212 E56.2632
G1 X184.21 Y162.866 E57.00914
G1 F2700 E52.00914
G1 F300 Z0.4
G0 F6000 X184.049 Y140.491 Z0.4
G1 F300 Z0.2
G1 F2700 E57.00914
G1 F1200 X183.929 Y140.371 E57.01472
G0 F6000 X183.363 Y140.371
G1 F1200 X184.049 Y141.057 E57.04667
G0 F6000 X184.049 Y141.622
G1 F1200 X182.797 Y140.371 E57.10495
G0 F6000 X182.232 Y140.371
G1 F1200 X184.049 Y142.188 E57.18956
G0 F6000 X184.049 Y142.754
G1 F1200 X181.666 Y140.371 E57.30053
G0 F6000 X181.1 Y140.371
G1 F1200 X184.049 Y143.319 E57.43783
G0 F6000 X184.049 Y143.885
G1 F1200 X180.534 Y140.371 E57.60149
G0 F6000 X179.969 Y140.371
G1 F1200 X184.049 Y144.451 E57.79148
G0 F6000 X184.049 Y145.016
G1 F1200 X179.403 Y140.371 E58.0078
G0 F6000 X178.837 Y140.371
G1 F1200 X184.049 Y145.582 E58.25048
G0 F6000 X184.049 Y146.148
G1 F1200 X178.272 Y140.371 E58.5195
G0 F6000 X177.706 Y140.371
G1 F1200 X184.049 Y146.714 E58.81487
G0 F6000 X184.049 Y147.279
G1 F1200 X177.14 Y140.371 E59.13658
G0 F6000 X176.575 Y140.371
G1 F1200 X184.049 Y147.845 E59.48461
G0 F6000 X184.049 Y148.411
G1 F1200 X176.009 Y140.371 E59.85901
G0 F6000 X175.443 Y140.371
G1 F1200 X184.049 Y148.976 E60.25974
G0 F6000 X184.049 Y149.542
G1 F1200 X174.878 Y140.371 E60.6868
G0 F6000 X174.312 Y140.371
G1 F1200 X184.049 Y150.108 E61.14022
G0 F6000 X184.049 Y150.673
G1 F1200 X173.746 Y140.371 E61.61997
G0 F6000 X173.181 Y140.371
G1 F1200 X184.049 Y151.239 E62.12606
G0 F6000 X184.049 Y151.805
G1 F1200 X172.615 Y140.371 E62.6585
G0 F6000 X172.049 Y140.371
G1 F1200 X184.049 Y152.37 E63.21727
G0 F6000 X184.049 Y152.936
G1 F1200 X171.484 Y140.371 E63.80238
G0 F6000 X170.918 Y140.371
G1 F1200 X184.049 Y153.502 E64.41385
G0 F6000 X184.049 Y154.067
G1 F1200 X170.352 Y140.371 E65.05165
G0 F6000 X169.786 Y140.371
G1 F1200 X184.049 Y154.633 E65.7158
G0 F6000 X184.049 Y155.199
G1 F1200 X169.221 Y140.371 E66.40629
G0 F6000 X168.655 Y140.371
G1 F1200 X184.049 Y155.765 E67.12314
G0 F6000 X184.049 Y156.33
G1 F1200 X168.089 Y140.371 E67.86632
G0 F6000 X167.524 Y140.371
G1 F1200 X184.049 Y156.896 E68.63583
G0 F6000 X184.049 Y157.462
G1 F1200 X166.958 Y140.371 E69.4317
G0 F6000 X166.392 Y140.371
G1 F1200 X184.049 Y158.027 E70.2539
G0 F6000 X184.049 Y158.593
G1 F1200 X165.827 Y140.371 E71.10244
G0 F6000 X165.261 Y140.371
G1 F1200 X184.049 Y159.159 E71.97733
G0 F6000 X184.049 Y159.724
G1 F1200 X164.695 Y140.371 E72.87856
G0 F6000 X164.13 Y140.371
G1 F1200 X184.049 Y160.29 E73.80612
G0 F6000 X184.049 Y160.856
G1 F1200 X163.564 Y140.371 E74.76003
G0 F6000 X162.998 Y140.371
G1 F1200 X184.049 Y161.421 E75.74028
G0 F6000 X184.049 Y161.987
G1 F1200 X162.433 Y140.371 E76.74686
G0 F6000 X161.867 Y140.371
G1 F1200 X184.049 Y162.553 E77.7798
G0 F6000 X183.635 Y162.705
G1 F1200 X161.301 Y140.371 E78.81982
G0 F6000 X160.735 Y140.371
G1 F1200 X183.069 Y162.705 E79.85984
G0 F6000 X182.504 Y162.705
G1 F1200 X160.17 Y140.371 E80.89986
G0 F6000 X159.604 Y140.371
G1 F1200 X181.938 Y162.705 E81.93987
G0 F6000 X181.372 Y162.705
G1 F1200 X159.038 Y140.371 E82.97989
G0 F6000 X158.473 Y140.371
G1 F1200 X180.807 Y162.705 E84.01991
G0 F6000 X180.241 Y162.705
G1 F1200 X157.907 Y140.371 E85.05993
G0 F6000 X157.341 Y140.371
G1 F1200 X179.675 Y162.705 E86.09994
G0 F6000 X179.11 Y162.705
G1 F1200 X156.776 Y140.371 E87.13996
G0 F6000 X156.21 Y140.371
G1 F1200 X178.544 Y162.705 E88.17998
G0 F6000 X177.978 Y162.705
G1 F1200 X155.644 Y140.371 E89.22
G0 F6000 X155.079 Y140.371
G1 F1200 X177.413 Y162.705 E90.26002
G0 F6000 X176.847 Y162.705
G1 F1200 X154.513 Y140.371 E91.30003
G0 F6000 X153.947 Y140.371
G1 F1200 X176.281 Y162.705 E92.34005
G0 F6000 X175.716 Y162.705
G1 F1200 X153.382 Y140.371 E93.38007
G0 F6000 X152.816 Y140.371
G1 F1200 X175.15 Y162.705 E94.42009
G0 F6000 X174.584 Y162.705
G1 F1200 X152.25 Y140.371 E95.4601
G0 F6000 X151.685 Y140.371
G1 F1200 X174.018 Y162.705 E96.5001
G0 F6000 X173.453 Y162.705
G1 F1200 X151.119 Y140.371 E97.54012
G0 F6000 X150.553 Y140.371
G1 F1200 X172.887 Y162.705 E98.58013
G0 F6000 X172.321 Y162.705
G1 F1200 X149.987 Y140.371 E99.62015
G0 F6000 X149.422 Y140.371
G1 F1200 X171.756 Y162.705 E100.66017
G0 F6000 X171.19 Y162.705
G1 F1200 X148.856 Y140.371 E101.70019
G0 F6000 X148.29 Y140.371
G1 F1200 X170.624 Y162.705 E102.7402
G0 F6000 X170.059 Y162.705
G1 F1200 X147.725 Y140.371 E103.78022
G0 F6000 X147.159 Y140.371
G1 F1200 X169.493 Y162.705 E104.82024
G0 F6000 X168.927 Y162.705
G1 F1200 X146.593 Y140.371 E105.86026
G0 F6000 X146.028 Y140.371
G1 F1200 X168.362 Y162.705 E106.90027
G0 F6000 X167.796 Y162.705
G1 F1200 X145.462 Y140.371 E107.94029
G0 F6000 X144.896 Y140.371
G1 F1200 X167.23 Y162.705 E108.98031
G0 F6000 X166.665 Y162.705
G1 F1200 X144.331 Y140.371 E110.02033
G0 F6000 X143.765 Y140.371
G1 F1200 X166.099 Y162.705 E111.06035
G0 F6000 X165.533 Y162.705
G1 F1200 X143.199 Y140.371 E112.10036
G0 F6000 X142.634 Y140.371
G1 F1200 X164.968 Y162.705 E113.14038
G0 F6000 X164.402 Y162.705
G1 F1200 X142.068 Y140.371 E114.1804
G0 F6000 X141.502 Y140.371
G1 F1200 X163.836 Y162.705 E115.22042
G0 F6000 X163.27 Y162.705
G1 F1200 X140.936 Y140.371 E116.26043
G0 F6000 X140.371 Y140.371
G1 F1200 X162.705 Y162.705 E117.30045
G0 F6000 X162.139 Y162.705
G1 F1200 X139.805 Y140.371 E118.34047
G0 F6000 X139.239 Y140.371
G1 F1200 X161.573 Y162.705 E119.38049
G0 F6000 X161.008 Y162.705
G1 F1200 X138.674 Y140.371 E120.4205
G0 F6000 X138.108 Y140.371
G1 F1200 X160.442 Y162.705 E121.46052
G0 F6000 X159.876 Y162.705
G1 F1200 X137.542 Y140.371 E122.50054
G0 F6000 X136.977 Y140.371
G1 F1200 X159.311 Y162.705 E123.54056
G0 F6000 X158.745 Y162.705
G1 F1200 X136.411 Y140.371 E124.58057
G0 F6000 X135.845 Y140.371
G1 F1200 X158.179 Y162.705 E125.62059
G0 F6000 X157.614 Y162.705
G1 F1200 X135.28 Y140.371 E126.66061
G0 F6000 X134.714 Y140.371
G1 F1200 X157.048 Y162.705 E127.70063
G0 F6000 X156.482 Y162.705
G1 F1200 X134.148 Y140.371 E128.74065
G0 F6000 X133.583 Y140.371
G1 F1200 X155.917 Y162.705 E129.78066
G0 F6000 X155.351 Y162.705
G1 F1200 X133.017 Y140.371 E130.82068
G0 F6000 X132.451 Y140.371
G1 F1200 X154.785 Y162.705 E131.8607
G0 F6000 X154.219 Y162.705
G1 F1200 X131.886 Y140.371 E132.90069
G0 F6000 X131.32 Y140.371
G1 F1200 X153.654 Y162.705 E133.94071
