;FLAVOR:Marlin
;TIME:9124
;Filament used: 6.70599m
;Layer height: 0.2
;MINX:99.283
;MINY:65.193
;MINZ:0.2
;MAXX:201.283
;MAXY:117.394
;MAXZ:25.2
;Generated with Cura_SteamEngine 4.13.1
M140 S50
M105
M190 S50
M104 S219
M105
M109 S219
M82 ;absolute extrusion mode
M201 X500.00 Y500.00 Z100.00 E5000.00 ;Setup machine max acceleration
M203 X500.00 Y500.00 Z10.00 E50.00 ;Setup machine max feedrate
M204 P500.00 R1000.00 T500.00 ;Setup Print/Retract/Travel acceleration
M205 X8.00 Y8.00 Z0.40 E5.00 ;Setup Jerk
M220 S100 ;Reset Feedrate
M221 S100 ;Reset Flowrate

G28 ;Home
G29 ;Auto bed Level

G92 E0 ;Reset Extruder
G1 Z2.0 F3000 ;Move Z Axis up
G1 X10.1 Y20 Z0.28 F5000.0 ;Move to start position
G1 X10.1 Y200.0 Z0.28 F1500.0 E15 ;Draw the first line
G1 X10.4 Y200.0 Z0.28 F5000.0 ;Move to side a little
G1 X10.4 Y20 Z0.28 F1500.0 E30 ;Draw the second line
G92 E0 ;Reset Extruder
G1 Z2.0 F3000 ;Move Z Axis up

G92 E0
G92 E0
G1 F2700 E-5
;LAYER_COUNT:125
;LAYER:0
M107
G1 F300 Z0.4
G0 F6000 X101.278 Y69.899 Z0.4
;TYPE:SKIRT
G1 F300 Z0.2
G1 F2700 E0
G1 F1200 X101.847 Y69.154 E0.03087
G1 X102.479 Y68.46 E0.06177
G1 X103.167 Y67.823 E0.09265
G1 X103.906 Y67.246 E0.12352
G1 X104.692 Y66.735 E0.15439
G1 X105.519 Y66.292 E0.18528
G1 X106.381 Y65.922 E0.21617
G1 X107.271 Y65.626 E0.24705
G1 X108.183 Y65.407 E0.27794
G1 X109.11 Y65.267 E0.30881
G1 X109.968 Y65.208 E0.33713
G1 X110.273 Y65.199 E0.34717
G1 X110.597 Y65.194 E0.35784
G1 X189.576 Y65.193 E2.95843
G1 X190.432 Y65.204 E2.98661
G1 X191.368 Y65.258 E3.01749
G1 X192.296 Y65.39 E3.04835
G1 X193.21 Y65.602 E3.07924
G1 X194.102 Y65.891 E3.11012
G1 X194.967 Y66.254 E3.14101
G1 X195.797 Y66.69 E3.17188
G1 X196.588 Y67.195 E3.20278
G1 X197.332 Y67.766 E3.23366
G1 X198.025 Y68.398 E3.26454
G1 X198.662 Y69.086 E3.29542
G1 X199.237 Y69.827 E3.3263
G1 X199.748 Y70.613 E3.35717
G1 X200.19 Y71.441 E3.38808
G1 X200.559 Y72.303 E3.41895
G1 X200.854 Y73.193 E3.44982
G1 X201.072 Y74.105 E3.4807
G1 X201.212 Y75.033 E3.5116
G1 X201.27 Y75.893 E3.53999
G1 X201.279 Y76.212 E3.55049
G1 X201.283 Y76.522 E3.5607
G1 X201.282 Y105.794 E4.52456
G1 X201.273 Y106.521 E4.5485
G1 X201.222 Y107.458 E4.5794
G1 X201.09 Y108.386 E4.61026
G1 X200.881 Y109.3 E4.64113
G1 X200.594 Y110.193 E4.67202
G1 X200.232 Y111.059 E4.70292
G1 X199.798 Y111.89 E4.73379
G1 X199.294 Y112.681 E4.76468
G1 X198.725 Y113.426 E4.79554
G1 X198.094 Y114.121 E4.82645
G1 X197.407 Y114.759 E4.85733
G1 X196.668 Y115.336 E4.8882
G1 X195.882 Y115.848 E4.91909
G1 X195.056 Y116.291 E4.94995
G1 X194.194 Y116.663 E4.98086
G1 X193.305 Y116.959 E5.01171
G1 X192.393 Y117.179 E5.04261
G1 X191.466 Y117.32 E5.07348
G1 X190.582 Y117.381 E5.10266
G1 X190.261 Y117.39 E5.11323
G1 X189.953 Y117.394 E5.12337
G1 X110.832 Y117.394 E7.72863
G1 X110.134 Y117.384 E7.75162
G1 X109.198 Y117.33 E7.78249
G1 X108.27 Y117.198 E7.81336
G1 X107.356 Y116.986 E7.84425
G1 X106.464 Y116.697 E7.87512
G1 X105.599 Y116.334 E7.90601
G1 X104.769 Y115.898 E7.93688
G1 X103.978 Y115.393 E7.96779
G1 X103.234 Y114.822 E7.99867
G1 X102.541 Y114.19 E8.02955
G1 X101.904 Y113.502 E8.06042
G1 X101.329 Y112.761 E8.09131
G1 X100.818 Y111.975 E8.12218
G1 X100.376 Y111.147 E8.15308
G1 X100.007 Y110.285 E8.18396
G1 X99.712 Y109.395 E8.21483
G1 X99.494 Y108.483 E8.24571
G1 X99.354 Y107.555 E8.27661
G1 X99.296 Y106.69 E8.30515
G1 X99.287 Y106.366 E8.31583
G1 X99.283 Y106.061 E8.32587
G1 X99.284 Y76.735 E9.2915
G1 X99.293 Y76.057 E9.31383
G1 X99.345 Y75.121 E9.3447
G1 X99.477 Y74.192 E9.3756
G1 X99.688 Y73.278 E9.40648
G1 X99.976 Y72.385 E9.43738
G1 X100.338 Y71.521 E9.46822
G1 X100.773 Y70.69 E9.49911
G1 X101.278 Y69.899 E9.53001
G0 F6000 X101.674 Y70.032
G1 F1200 X102.242 Y69.307 E9.56034
G1 X102.871 Y68.635 E9.59064
G1 X103.555 Y68.019 E9.62095
G1 X104.291 Y67.465 E9.65129
G1 X105.072 Y66.978 E9.68159
G1 X105.892 Y66.559 E9.71191
G1 X106.745 Y66.214 E9.74221
G1 X107.625 Y65.944 E9.77252
G1 X108.526 Y65.751 E9.80286
G1 X109.439 Y65.637 E9.83316
G1 X109.979 Y65.608 E9.85097
G1 X110.284 Y65.599 E9.86101
G1 X110.597 Y65.594 E9.87132
G1 X189.576 Y65.593 E12.4719
G1 X190.426 Y65.604 E12.49989
G1 X191.345 Y65.657 E12.53021
G1 X192.256 Y65.79 E12.56052
G1 X193.152 Y66.001 E12.59083
G1 X194.026 Y66.289 E12.62113
G1 X194.873 Y66.652 E12.65147
G1 X195.684 Y67.087 E12.68178
G1 X196.454 Y67.591 E12.71208
G1 X197.178 Y68.16 E12.7424
G1 X197.85 Y68.79 E12.77273
G1 X198.465 Y69.475 E12.80304
G1 X199.018 Y70.211 E12.83336
G1 X199.505 Y70.992 E12.86366
G1 X199.922 Y71.813 E12.89398
G1 X200.267 Y72.667 E12.92431
G1 X200.536 Y73.547 E12.95461
G1 X200.728 Y74.448 E12.98495
G1 X200.841 Y75.361 E13.01524
G1 X200.87 Y75.904 E13.03314
G1 X200.879 Y76.223 E13.04365
G1 X200.883 Y76.522 E13.0535
G1 X200.882 Y105.789 E14.01719
G1 X200.873 Y106.516 E14.04113
G1 X200.822 Y107.435 E14.07143
G1 X200.691 Y108.347 E14.10177
G1 X200.481 Y109.243 E14.13208
G1 X200.195 Y110.118 E14.16239
G1 X199.834 Y110.965 E14.1927
G1 X199.4 Y111.777 E14.22302
G1 X198.898 Y112.549 E14.25334
G1 X198.33 Y113.274 E14.28367
G1 X197.702 Y113.947 E14.31398
G1 X197.018 Y114.563 E14.34429
G1 X196.283 Y115.117 E14.37459
G1 X195.503 Y115.606 E14.40491
G1 X194.683 Y116.025 E14.43523
G1 X193.83 Y116.371 E14.46554
G1 X192.95 Y116.642 E14.49586
G1 X192.05 Y116.835 E14.52617
G1 X191.136 Y116.95 E14.5565
G1 X190.571 Y116.981 E14.57513
G1 X190.25 Y116.99 E14.58571
G1 X189.953 Y116.994 E14.59549
G1 X110.838 Y116.994 E17.20055
G1 X110.14 Y116.984 E17.22353
G1 X109.221 Y116.931 E17.25384
G1 X108.31 Y116.798 E17.28416
G1 X107.414 Y116.587 E17.31447
G1 X106.54 Y116.299 E17.34477
G1 X105.693 Y115.936 E17.37511
G1 X104.882 Y115.501 E17.40542
G1 X104.112 Y114.997 E17.43572
G1 X103.388 Y114.428 E17.46604
G1 X102.716 Y113.798 E17.49637
G1 X102.101 Y113.113 E17.52668
G1 X101.548 Y112.377 E17.557
G1 X101.061 Y111.596 E17.5873
G1 X100.644 Y110.775 E17.61762
G1 X100.299 Y109.921 E17.64795
G1 X100.03 Y109.041 E17.67825
G1 X99.838 Y108.14 E17.70858
G1 X99.725 Y107.227 E17.73888
G1 X99.696 Y106.679 E17.75695
G1 X99.687 Y106.355 E17.76762
G1 X99.683 Y106.061 E17.7773
G1 X99.684 Y76.74 E18.74277
G1 X99.693 Y76.062 E18.7651
G1 X99.745 Y75.143 E18.7954
G1 X99.877 Y74.232 E18.82571
G1 X100.087 Y73.336 E18.85602
G1 X100.374 Y72.461 E18.88634
G1 X100.737 Y71.615 E18.91665
G1 X101.171 Y70.803 E18.94697
G1 X101.674 Y70.032 E18.97728
G0 F6000 X102.07 Y70.167
G1 F1200 X102.636 Y69.463 E19.00702
G1 X103.262 Y68.813 E19.03674
G1 X103.943 Y68.22 E19.06647
G1 X104.674 Y67.689 E19.09622
G1 X105.449 Y67.226 E19.12595
G1 X106.262 Y66.833 E19.15568
G1 X107.107 Y66.513 E19.18543
G1 X107.977 Y66.269 E19.21519
G1 X108.864 Y66.103 E19.2449
G1 X109.991 Y66.007 E19.28214
G1 X110.296 Y65.998 E19.29219
G1 X110.597 Y65.994 E19.3021
G1 X189.576 Y65.993 E21.90269
G1 X190.42 Y66.004 E21.93048
G1 X191.322 Y66.057 E21.96023
G1 X192.215 Y66.189 E21.98996
G1 X193.093 Y66.4 E22.01969
G1 X193.949 Y66.688 E22.04943
G1 X194.776 Y67.05 E22.07915
G1 X195.568 Y67.485 E22.10891
G1 X196.319 Y67.987 E22.13865
G1 X197.022 Y68.554 E22.16839
G1 X197.672 Y69.181 E22.19813
G1 X198.264 Y69.863 E22.22786
G1 X198.794 Y70.594 E22.2576
G1 X199.256 Y71.37 E22.28733
G1 X199.649 Y72.183 E22.31707
G1 X199.967 Y73.028 E22.3468
G1 X200.21 Y73.898 E22.37654
G1 X200.375 Y74.786 E22.40628
G1 X200.47 Y75.915 E22.44359
G1 X200.479 Y76.234 E22.45409
G1 X200.483 Y76.522 E22.46358
G1 X200.482 Y105.784 E23.4271
G1 X200.473 Y106.511 E23.45104
G1 X200.422 Y107.413 E23.48079
G1 X200.291 Y108.307 E23.51054
G1 X200.082 Y109.185 E23.54026
G1 X199.796 Y110.042 E23.57001
G1 X199.435 Y110.87 E23.59975
G1 X199.003 Y111.662 E23.62946
G1 X198.502 Y112.414 E23.65921
G1 X197.936 Y113.118 E23.68896
G1 X197.311 Y113.769 E23.71867
G1 X196.63 Y114.363 E23.74843
G1 X195.899 Y114.894 E23.77818
G1 X195.125 Y115.358 E23.80789
G1 X194.312 Y115.752 E23.83764
G1 X193.468 Y116.072 E23.86736
G1 X192.598 Y116.317 E23.89712
G1 X191.711 Y116.483 E23.92684
G1 X190.56 Y116.581 E23.96487
G1 X190.239 Y116.59 E23.97545
G1 X189.953 Y116.594 E23.98486
G1 X110.844 Y116.594 E26.58973
G1 X110.146 Y116.584 E26.61271
G1 X109.244 Y116.531 E26.64247
G1 X108.351 Y116.399 E26.67219
G1 X107.473 Y116.188 E26.70192
G1 X106.617 Y115.9 E26.73166
G1 X105.79 Y115.538 E26.76139
G1 X104.998 Y115.103 E26.79114
G1 X104.247 Y114.601 E26.82089
G1 X103.544 Y114.034 E26.85062
G1 X102.894 Y113.407 E26.88036
G1 X102.302 Y112.725 E26.9101
G1 X101.772 Y111.994 E26.93983
G1 X101.31 Y111.218 E26.96957
G1 X100.917 Y110.405 E26.9993
G1 X100.599 Y109.56 E27.02903
G1 X100.356 Y108.69 E27.05877
G1 X100.191 Y107.802 E27.08851
G1 X100.096 Y106.668 E27.12598
G1 X100.087 Y106.344 E27.13666
G1 X100.083 Y106.061 E27.14598
G1 X100.084 Y76.746 E28.11125
G1 X100.093 Y76.068 E28.13357
G1 X100.145 Y75.166 E28.16332
G1 X100.276 Y74.273 E28.19304
G1 X100.486 Y73.394 E28.2228
G1 X100.773 Y72.538 E28.25253
G1 X101.135 Y71.71 E28.28228
G1 X101.568 Y70.918 E28.31201
G1 X102.07 Y70.167 E28.34175
G1 F2700 E23.34175
G1 F300 Z0.4
;MESH:Front_Cover.3mf
G0 F6000 X111.683 Y104.995 Z0.4
;TYPE:WALL-INNER
G1 F300 Z0.2
G1 F2700 E28.34175
G1 F1200 X111.683 Y77.594 E29.244
G1 X188.883 Y77.593 E31.786
G1 X188.883 Y104.994 E32.68825
G1 X111.683 Y104.995 E35.23026
G0 F6000 X111.283 Y105.395
G1 F1200 X111.283 Y77.194 E36.15884
G1 X189.283 Y77.193 E38.72719
G1 X189.283 Y105.394 E39.65578
G1 X111.283 Y105.395 E42.22413
G0 F6000 X110.883 Y105.795
G1 F1200 X110.883 Y76.794 E43.17906
G1 X189.683 Y76.793 E45.77375
G1 X189.683 Y105.794 E46.72868
G1 X110.883 Y105.795 E49.32337
G0 F6000 X110.483 Y106.195
;TYPE:WALL-OUTER
G1 F1200 X110.483 Y76.394 E50.30465
G1 X190.083 Y76.393 E52.92568
G1 X190.083 Y106.194 E53.90695
G1 X110.483 Y106.195 E56.52798
G1 F2700 E51.52798
G1 F300 Z0.4
G0 F6000 X112.073 Y104.605 Z0.4
;TYPE:SKIN
G1 F300 Z0.2
G1 F2700 E56.52798
G1 F1200 X112.073 Y77.984 E57.40455
G1 X188.493 Y77.983 E59.92087
G1 X188.493 Y104.604 E60.79743
G1 X112.073 Y104.605 E63.31375
G0 F6000 X112.364 Y104.444
G1 F1200 X112.231 Y104.312 E63.31992
G0 F6000 X112.231 Y103.746
G1 F1200 X112.929 Y104.444 E63.35243
G0 F6000 X113.495 Y104.444
G1 F1200 X112.231 Y103.181 E63.41126
G0 F6000 X112.231 Y102.615
G1 F1200 X114.061 Y104.444 E63.49646
G0 F6000 X114.626 Y104.444
G1 F1200 X112.231 Y102.049 E63.60798
G0 F6000 X112.231 Y101.483
G1 F1200 X115.192 Y104.444 E63.74587
G0 F6000 X115.758 Y104.444
G1 F1200 X112.231 Y100.918 E63.91009
G0 F6000 X112.231 Y100.352
G1 F1200 X116.324 Y104.444 E64.10066
G0 F6000 X116.889 Y104.444
G1 F1200 X112.231 Y99.786 E64.31757
G0 F6000 X112.231 Y99.221
G1 F1200 X117.455 Y104.444 E64.56081
G0 F6000 X118.021 Y104.444
G1 F1200 X112.231 Y98.655 E64.8304
G0 F6000 X112.231 Y98.089
G1 F1200 X118.586 Y104.444 E65.12633
G0 F6000 X119.152 Y104.444
G1 F1200 X112.231 Y97.524 E65.4486
G0 F6000 X112.231 Y96.958
G1 F1200 X119.718 Y104.444 E65.79722
G0 F6000 X120.283 Y104.444
G1 F1200 X112.231 Y96.392 E66.17217
G0 F6000 X112.231 Y95.827
G1 F1200 X120.849 Y104.444 E66.57346
G0 F6000 X121.415 Y104.444
G1 F1200 X112.231 Y95.261 E67.0011
G0 F6000 X112.231 Y94.695
G1 F1200 X121.98 Y104.444 E67.45508
G0 F6000 X122.546 Y104.444
G1 F1200 X112.231 Y94.13 E67.93539
G0 F6000 X112.231 Y93.564
G1 F1200 X123.112 Y104.444 E68.44206
G0 F6000 X123.677 Y104.444
G1 F1200 X112.231 Y92.998 E68.97506
G0 F6000 X112.231 Y92.432
G1 F1200 X124.243 Y104.444 E69.53442
G0 F6000 X124.809 Y104.444
G1 F1200 X112.231 Y91.867 E70.12011
G0 F6000 X112.231 Y91.301
G1 F1200 X125.374 Y104.444 E70.73213
G0 F6000 X125.94 Y104.444
G1 F1200 X112.231 Y90.735 E71.37051
G0 F6000 X112.231 Y90.17
G1 F1200 X126.506 Y104.444 E72.03523
G0 F6000 X127.072 Y104.444
G1 F1200 X112.231 Y89.604 E72.7263
G0 F6000 X112.231 Y89.038
G1 F1200 X127.637 Y104.444 E73.4437
G0 F6000 X128.203 Y104.444
G1 F1200 X112.231 Y88.473 E74.18744
G0 F6000 X112.231 Y87.907
G1 F1200 X128.769 Y104.444 E74.95754
G0 F6000 X129.334 Y104.444
G1 F1200 X112.231 Y87.341 E75.75397
G0 F6000 X112.231 Y86.776
G1 F1200 X129.9 Y104.444 E76.57673
G0 F6000 X130.466 Y104.444
G1 F1200 X112.231 Y86.21 E77.42584
G0 F6000 X112.231 Y85.644
G1 F1200 X131.031 Y104.444 E78.3013
G0 F6000 X131.597 Y104.444
G1 F1200 X112.231 Y85.079 E79.20308
G0 F6000 X112.231 Y84.513
G1 F1200 X132.163 Y104.444 E80.13122
G0 F6000 X132.728 Y104.444
G1 F1200 X112.231 Y83.947 E81.0857
G0 F6000 X112.231 Y83.382
G1 F1200 X133.294 Y104.444 E82.06651
G0 F6000 X133.86 Y104.444
G1 F1200 X112.231 Y82.816 E83.07367
G0 F6000 X112.231 Y82.25
G1 F1200 X134.425 Y104.444 E84.10717
G0 F6000 X134.991 Y104.444
G1 F1200 X112.231 Y81.684 E85.16702
G0 F6000 X112.231 Y81.119
G1 F1200 X135.557 Y104.444 E86.25321
G0 F6000 X136.123 Y104.444
G1 F1200 X112.231 Y80.553 E87.36576
G0 F6000 X112.231 Y79.987
G1 F1200 X136.688 Y104.444 E88.50464
G0 F6000 X137.254 Y104.444
G1 F1200 X112.231 Y79.422 E89.66985
G0 F6000 X112.231 Y78.856
G1 F1200 X137.82 Y104.444 E90.86142
G0 F6000 X138.385 Y104.444
G1 F1200 X112.231 Y78.29 E92.07932
G0 F6000 X112.65 Y78.143
G1 F1200 X138.951 Y104.444 E93.30407
G0 F6000 X139.517 Y104.444
G1 F1200 X113.216 Y78.143 E94.52881
G0 F6000 X113.781 Y78.143
G1 F1200 X140.082 Y104.444 E95.75356
G0 F6000 X140.648 Y104.444
G1 F1200 X114.347 Y78.143 E96.97831
G0 F6000 X114.913 Y78.143
G1 F1200 X141.214 Y104.444 E98.20305
G0 F6000 X141.779 Y104.444
G1 F1200 X115.479 Y78.143 E99.42778
G0 F6000 X116.044 Y78.143
G1 F1200 X142.345 Y104.444 E100.65253
G0 F6000 X142.911 Y104.444
G1 F1200 X116.61 Y78.143 E101.87727
G0 F6000 X117.176 Y78.143
G1 F1200 X143.476 Y104.444 E103.102
G0 F6000 X144.042 Y104.444
G1 F1200 X117.741 Y78.143 E104.32674
G0 F6000 X118.307 Y78.143
G1 F1200 X144.608 Y104.444 E105.55149
G0 F6000 X145.173 Y104.444
G1 F1200 X118.873 Y78.143 E106.77621
G0 F6000 X119.438 Y78.143
G1 F1200 X145.739 Y104.444 E108.00096
G0 F6000 X146.305 Y104.444
G1 F1200 X120.004 Y78.143 E109.22571
G0 F6000 X120.57 Y78.143
G1 F1200 X146.871 Y104.444 E110.45046
G0 F6000 X147.436 Y104.444
G1 F1200 X121.135 Y78.143 E111.6752
G0 F6000 X121.701 Y78.143
G1 F1200 X148.002 Y104.444 E112.89995
G0 F6000 X148.568 Y104.444
G1 F1200 X122.267 Y78.143 E114.1247
G0 F6000 X122.832 Y78.143
G1 F1200 X149.133 Y104.444 E115.34945
G0 F6000 X149.699 Y104.444
G1 F1200 X123.398 Y78.143 E116.57419
G0 F6000 X123.964 Y78.143
G1 F1200 X150.265 Y104.444 E117.79894
G0 F6000 X150.83 Y104.443
G1 F1200 X124.529 Y78.143 E119.02366
G0 F6000 X125.095 Y78.143
G1 F1200 X151.395 Y104.443 E120.24836
G0 F6000 X151.961 Y104.443
G1 F1200 X125.661 Y78.143 E121.47306
G0 F6000 X126.227 Y78.143
G1 F1200 X152.527 Y104.443 E122.69777
G0 F6000 X153.092 Y104.443
G1 F1200 X126.792 Y78.143 E123.92247
G0 F6000 X127.358 Y78.143
G1 F1200 X153.658 Y104.443 E125.14717
G0 F6000 X154.224 Y104.443
G1 F1200 X127.924 Y78.143 E126.37187
G0 F6000 X128.489 Y78.143
G1 F1200 X154.789 Y104.443 E127.59657
G0 F6000 X155.355 Y104.443
G1 F1200 X129.055 Y78.143 E128.82127
G0 F6000 X129.621 Y78.143
G1 F1200 X155.921 Y104.443 E130.04597
G0 F6000 X156.486 Y104.443
G1 F1200 X130.186 Y78.143 E131.27067
G0 F6000 X130.752 Y78.143
G1 F1200 X157.052 Y104.443 E132.49537
G0 F6000 X157.618 Y104.443
G1 F1200 X131.318 Y78.143 E133.72007
G0 F6000 X131.883 Y78.143
G1 F1200 X158.184 Y104.443 E134.9448
G0 F6000 X158.749 Y104.443
G1 F1200 X132.449 Y78.143 E136.1695
G0 F6000 X133.015 Y78.143
G1 F1200 X159.315 Y104.443 E137.3942
G0 F6000 X159.881 Y104.443
G1 F1200 X133.58 Y78.143 E138.61892
G0 F6000 X134.146 Y78.143
G1 F1200 X160.446 Y104.443 E139.84362
G0 F6000 X161.012 Y104.443
G1 F1200 X134.712 Y78.143 E141.06832
G0 F6000 X135.278 Y78.143
G1 F1200 X161.578 Y104.443 E142.29302
G0 F6000 X162.143 Y104.443
G1 F1200 X135.843 Y78.143 E143.51772
G0 F6000 X136.409 Y78.143
G1 F1200 X162.709 Y104.443 E144.74242
G0 F6000 X163.275 Y104.443
G1 F1200 X136.975 Y78.143 E145.96712
G0 F6000 X137.54 Y78.143
G1 F1200 X163.84 Y104.443 E147.19183
G0 F6000 X164.406 Y104.443
G1 F1200 X138.106 Y78.143 E148.41653
G0 F6000 X138.672 Y78.143
G1 F1200 X164.972 Y104.443 E149.64123
G0 F6000 X165.537 Y104.443
G1 F1200 X139.237 Y78.143 E150.86593
G0 F6000 X139.803 Y78.143
G1 F1200 X166.103 Y104.443 E152.09063
G0 F6000 X166.669 Y104.443
G1 F1200 X140.369 Y78.143 E153.31533
G0 F6000 X140.934 Y78.143
